packages/synapse-interface/assets/chains/avalanche.svg

<svg fill="none" height="48" viewBox="0 0 48 48" width="48" xmlns="http://www.w3.org/2000/svg"><circle cx="24" cy="24" fill="#e84142" r="24"/><path clip-rule="evenodd" d="m17.2024 33.5508h-4.6559c-.9784 0-1.4617 0-1.7563-.1885-.3183-.2065-.5128-.5484-.5363-.9258-.0177-.3477.2239-.7724.7072-1.6214l11.496-20.2712c.4892-.86082.7367-1.29122 1.049-1.4504.336-.17097.7367-.17097 1.0727 0 .3123.15918.5599.58958 1.049 1.4504l2.3633 4.1271.0121.0211c.5283.9234.7962 1.3917.9132 1.8832.1297.5387.1297 1.1004 0 1.6391-.1178.4952-.3831.9669-.9194 1.9044l-6.0385 10.6786-.0157.0274c-.5318.9311-.8013 1.403-1.1748 1.759-.4067.3892-.8959.672-1.4322.8315-.4892.1355-1.0372.1355-2.1334.1355zm11.7576 0h6.6714c.9842 0 1.4794 0 1.7742-.1943.3182-.2064.5185-.5545.5364-.9315.0169-.3366-.2195-.7447-.6827-1.5443-.016-.0273-.0319-.055-.0482-.0831l-3.3418-5.719-.038-.0644c-.4696-.7944-.7066-1.1956-1.0111-1.3506-.1651-.0843-.3479-.1283-.5333-.1283s-.3682.044-.5333.1283c-.3065.1592-.554.5778-1.0432 1.4209l-3.3298 5.719-.0115.0196c-.4874.8418-.731 1.2625-.7134 1.6076.0235.3774.218.7251.5362.9316.2889.1885.7839.1885 1.7681.1885z" fill="#fff" fill-rule="evenodd"/></svg>

<svg width="48" height="48" viewBox="0 0 48 48" fill="none" xmlns="http://www.w3.org/2000/svg">
<circle cx="24" cy="24" r="24" fill="#E84142"/>
<path fill-rule="evenodd" clip-rule="evenodd" d="M17.2024 33.5508H12.5465C11.5681 33.5508 11.0848 33.5508 10.7902 33.3623C10.4719 33.1558 10.2774 32.8139 10.2539 32.4365C10.2362 32.0888 10.4778 31.6641 10.9611 30.8151L22.4571 10.5439C22.9463 9.68308 23.1938 9.25268 23.5061 9.0935C23.8421 8.92253 24.2428 8.92253 24.5788 9.0935C24.8911 9.25268 25.1387 9.68308 25.6278 10.5439L27.9911 14.671L28.0032 14.6921C28.5315 15.6155 28.7994 16.0838 28.9164 16.5753C29.0461 17.114 29.0461 17.6757 28.9164 18.2144C28.7986 18.7096 28.5333 19.1813 27.997 20.1188L21.9585 30.7974L21.9428 30.8248C21.411 31.7559 21.1415 32.2278 20.768 32.5838C20.3613 32.973 19.8721 33.2558 19.3358 33.4153C18.8466 33.5508 18.2986 33.5508 17.2024 33.5508ZM28.96 33.5508H35.6314C36.6156 33.5508 37.1108 33.5508 37.4056 33.3565C37.7238 33.1501 37.9241 32.802 37.942 32.425C37.9589 32.0884 37.7225 31.6803 37.2593 30.8807C37.2433 30.8534 37.2274 30.8257 37.2111 30.7976L33.8693 25.0786L33.8313 25.0142C33.3617 24.2198 33.1247 23.8186 32.8202 23.6636C32.6551 23.5793 32.4723 23.5353 32.2869 23.5353C32.1015 23.5353 31.9187 23.5793 31.7536 23.6636C31.4471 23.8228 31.1996 24.2414 30.7104 25.0845L27.3806 30.8035L27.3691 30.8231C26.8817 31.6649 26.6381 32.0856 26.6557 32.4307C26.6792 32.8081 26.8737 33.1558 27.1919 33.3623C27.4808 33.5508 27.9758 33.5508 28.96 33.5508Z" fill="white"/>
</svg>
